X: 1
T: Lilleshall's Fancy  (G)
C: Beryl S Johnston
R: strathspey
B: RSCDS (Birmingham Branch) "Scottish Country Dances" #3
Z: 2005 John Chambers <jc:trillian.mit.edu>
M: C
L: 1/8
%
K: G
D2 \
| "G"G2 G>A B2 B>d | "C"e>d ef g2 e2 | "G"d<B- B2 "Em"B<G- G2 | "Am"B<A- A2- "D7"A2 D2 |
| "G"G2 G>A B2 Bd | "C"e>d ef ag fe | "G"d<g- g2 "D7" B<A- A2 | "G"G6 ||
e2 \
| "D7"d2 d>A "G"B2GB | "C"c>B cd "G"Bd eg | "D"f<d- d2 "A7"e<^c- c2 | "D7"e<d- d4 e2 |
| "G"d2 B>A G<D- D>D | "Em"E>D EG "Am"BA eg | "G"d<B "(Em)"B<G "C"G<E ED | "C"E<G "(D7)"G>A "G"G2 |]
